X:1
T:Johnny Randolph
M:2/4
L:1/8
K:G
 G4| G2 GG| E2 DD| D2 EF| G2 z G| G2 GG| G D2 D| D2 EF| G2 z E| G2 GG|\
 E2 DD| D2 EF| G2 GA| B2 BB| A2 GF| D2 EF| G4|
